X:317
T:Rough Road
Z: id:dc-reel-12
M:C
L:1/8
K:G Major
GE|DGG2 DGBd|g2dg egdB|A2AG AcBA|GBAF GFEF|!
DGG2 DGBd|g2dg egdB|GABd gedc|BGAF G2:|!
Bc|dgg2 gGBd|g2af gfed|eaa2 abag|eaag egdB|!
dgg2 gGBd|g2af gedB|GABd gedc|BGAF G2:|!

